X:1
T:The Sailor Boy
M:4/4
L:1/8
K:Db
 F2| A,D DE F/2 F3/2 F3/2 D/2| F/2 F3/2 G3/2 F/2 E2 E2| A,2 EF G/2 G3/2 G2|\
 A2 G3/2 E/2 D2| F2| A,D DE F/2 F3/2 D2| FF G3/2 F/2 E2 EE| A,E EF G/2 G3/2 GG|\
 A/2 G3/2 F3/2 E/2 D2||
